X:1
T:Scotch Tune. SenH.113, A
T:Scotch Tune. SenH.113, A
T:in Hand C
C:in Hand C
L:1/8
Q:1/4=100
M:4/4
K:C
V:1 treble 
V:1
 c2 (e2 g2) e2 | d>ef>g a2 (a/b/c') | c2 e2 g2 c'2 | a2 (a/b/c') g3 e | f>ga>g a>bc'>e | %5
 d>ef>g a2 (a/b/c') | c3 A G2 GA | c3 d e2 c'2 || c>de>f g>ag>e | d>ef>g a>ga>b | c>de>f g>ag>e | %11
 c'>d'c'>a g>c'g>e | f>ga>b c'>ag>f | d>ef>g a>ga>c' | c>d (e/d/)(c/B/) G>A (B/A/)(B/G/) | %15
 c3 d e2 c'2 || c2 e2 g2 e2 | d>ef>g a2 a/b/c' | c3 e g3 e | c'3 e g3 e | f2 (a/b/c') e2 (a/b/c') | %21
 d>ef>g a2 (a/b/c') | c3 (B/A/) G3 (G/A/) | c3 d e2 c'2 || c>de>f g(a/g/) (a/g/)(f/e/) | %25
 d>ef>g a>ga>c' | c>de>f g(a/g/) a/g/f/e/ | c'(d'/c'/) (d'/c'/)(b/a/) g(a/g/) (a/g/)(f/e/) | %28
 f(g/f/) (g/f/)(e/d/) e(f/e/) (f/e/)(d/c/) | d>ef>g a>ga>b | %30
 (c'/b/)(a/g/) (a/g/)(f/e/) (f/e/)(d/c/) gG | c>de>g a>ga>c' |] %32

